X: 4
T: The Reverend Brother's, lower octave
M: 6/8
L: 1/8
R: jig
K:ADOR %Transposed from DDOR
|:"Am"A,B,A, C2E|DCD EGE|A,B,A, C2E|"G"DCA, A,G,B,|
"Am"A,B,A, C2E|DCD EGE|A3 GED|"G"CA,G, "Am"A,3:|
|:"Am"EAA ABA|"G"GEF GED|"Am"EAA ABA|"G"GED CA,A,|
"Am"EAA ABA|"G"GEF G3|"Am"A3 GED|"G"CA,G, "Am"A,3:||

